X: 1
T: String Quartet in G Major opus 64 no 4 mvt 2
C: Franz Joseph Haydn
%%abc-version 2.0
%%abcx-abcm2ps-target-version 5.9.1 (29 Sep 2008)
%%abc-creator hum2abc beta
%%abcx-conversion-date 2021/02/14 14:38:34
%%abc-copyright Copyright (c) 1994, 2000 Center for Computer Assisted Research in the Humanities
%%abc-edited-by Frances Bennion
%%abcx-initial-encoding-date 1997/04/15
%%gracespace 0 6 6
%%humdrum-veritas 2918000537
%%humdrum-veritas-data 3761195414
%%linebreak <none>
%%barnumbers 0
L: 1/8
M: 3/4
N: Derived from op64n4-02.krn
Q: "Minuetto"
%%staves [1 2 3 4]
V: 1
V: 2
V: 3 clef=alto
V: 4 clef=bass
K: G
[V:1]z4 dB [I:setbarnb1]|
[V:2]z4 z2 |
[V:3]z4 z2 |
[V:4]z4 z2 |
[V:1]FG D2 bg |
[V:2]z2 D2 D2 |
[V:3]z2 B,2 B,2 |
[V:4]z2 G,2 G,2 |
[V:1]fa c2 Ac |
[V:2]z2 F2 F2 |
[V:3]z2 A,2 A,2 |
[V:4]z2 D,2 D,2 |
[V:1]c/B/z d/c/z e/c/z |
[V:2]Gz Gz Gz |
[V:3]G,z E,z C,z |
[V:4]G,z E,z C,z |
[V:1]A4 D2 |
[V:2]F4 z2 |
[V:3]D,2 z4 |
[V:4]D,2 D2 z2 |
[V:1]G4 B^G |
[V:2]z2 D2 D2 |
[V:3]z2 G,2 =F2 |
[V:4]z2 B,,2 B,,2 |
[V:1]BA c2 cB |
[V:2]E2 z2 ED |
[V:3]E2 z4 |
[V:4]C,2 z4 |
[V:1]A2 AG AD |
[V:2]C6 |
[V:3]F6 |
[V:4]D,2 D,2 D,2 |
[V:1]G2 z4 |
[V:2]B,2 z2 cB |
[V:3]G2 z4 |
[V:4]G,,2 G,2 z2 |
[V:1]z4 f2 |
[V:2]A2 AG AD |
[V:3]F4 D2 |
[V:4]C,2 C,2 C,2 |
[V:1]ga ba gf |
[V:2]G2 z2 BA |
[V:3]D2 G2 z2 |
[V:4]B,,2 G,,2 z2 |
[V:1]e2 ed eA |
[V:2]G2 GF GE |
[V:3]^C6 |
[V:4]A,,2 A,,2 A,,2 |
[V:1]d4 f'd' |
[V:2]FA df af |
[V:3]D2 F2 F2 |
[V:4]D,,2 D,2 D,2 |
[V:1]^c'e' g'e' c'e' |
[V:2]g6 |
[V:3]E^C EG EC |
[V:4]D,,2 D,2 D,2 |
[V:1]d'2 a2 f'd' |
[V:2]f4 df |
[V:3]D2 F2 F2 |
[V:4]D,,2 D,2 D,2 |
[V:1]^c'e' g'e' c'e' |
[V:2]g2 g2 g2 |
[V:3]E^C EG EC |
[V:4]D,,2 D,2 D,2 |
[V:1]d'4 e'^c' |
[V:2]f4 ge |
[V:3]D2 A2 ^CE |
[V:4]D,6 |
[V:1]d'4 e'b |
[V:2]f4 ^g2 |
[V:3]D2 A2 B2 |
[V:4]D,6 |
[V:1]c'4 d'a |
[V:2]a2 e2 f2 |
[V:3]z2 G2 A2 |
[V:4]D,6 |
[V:1]c'b d'b ag |
[V:2]g2 z2 B2 |
[V:3]z4 G2 |
[V:4]D,2 z4 |
[V:1]gf af dc |
[V:2]c2 z2 A2 |
[V:3]A2 z2 F2 |
[V:4]D,2 z4 |
[V:1]Bd gd BG |
[V:2]B2 zd BG |
[V:3]G2 z4 |
[V:4]D,2 z4 |
[V:1]DF AF DC |
[V:2]DF AF DC |
[V:3]DF AF DC |
[V:4]D,F, A,F, D,C, |
[V:1]B,D GD B,G, |
[V:2]B,D GD B,G, |
[V:3]B,D GD B,G, |
[V:4]B,,D, G,D, B,,G,, |
[V:1]D2 z2 dB |
[V:2]D2 z4 |
[V:3]D2 D,2 z2 |
[V:4]D,2 D,,2 z2 |
[V:1]FG D2 bg |
[V:2]z2 D2 D2 |
[V:3]z2 B,2 B,2 |
[V:4]z2 G,2 G,2 |
[V:1]fa c2 Ac |
[V:2]z2 F2 F2 |
[V:3]z2 A,2 A,2 |
[V:4]z2 D,2 D,2 |
[V:1]c/B/z d/c/z e/c/z |
[V:2]Gz Gz Gz |
[V:3]G,z E,z C,z |
[V:4]G,z E,z C,z |
[V:1]A4 D2 |
[V:2]F4 z2 |
[V:3]D,2 z4 |
[V:4]D,2 D2 z2 |
[V:1]G4 B^G |
[V:2]z2 D2 D2 |
[V:3]z2 G,2 =F2 |
[V:4]z2 B,,2 B,,2 |
[V:1]BA c2 cB |
[V:2]E2 z2 ED |
[V:3]E2 z4 |
[V:4]C,2 z4 |
[V:1]A2 AG AD |
[V:2]C6 |
[V:3]F6 |
[V:4]D,2 D,2 D,2 |
[V:1]G2 z2 bg |
[V:2]B,2 z4 |
[V:3]G2 z4 |
[V:4]G,,2 G,2 z2 |
[V:1]dB GD BG |
[V:2]D2 z2 D2 |
[V:3]B,2 z2 B,2 |
[V:4]G,,2 z4 |
[V:1]EG cE DB |
[V:2]E2 z2 D2 |
[V:3]C2 z2 B,2 |
[V:4]G,,2 z4 |
[V:1]CB Af gd |
[V:2]A,2 c2 B2 |
[V:3]F,2 z4 |
[V:4]D,2 z4 |
[V:1]cd cA BG |
[V:2]A2 c2 B2 |
[V:3]F2 A2 G2 |
[V:4]D,2 z2 D,2 |
[V:1]Df Dd bg |
[V:2]A2 z4 |
[V:3]F2 z4 |
[V:4]D,2 z4 |
[V:1]dB GD BG |
[V:2]D2 z2 D2 |
[V:3]B,2 z2 B,2 |
[V:4]G,2 z4 |
[V:1]EG cE DB |
[V:2]E2 z2 D2 |
[V:3]C2 z2 B,2 |
[V:4]G,,2 z4 |
[V:1]CB Af gd |
[V:2]A,2 c2 B2 |
[V:3]F,2 z2 G,2 |
[V:4]D,2 z2 G,,2 |
[V:1]ce dB cA |
[V:2]e2 d2 F2 |
[V:3]C2 B,2 A,2 |
[V:4]C,2 D,2 D,2 |
[V:1]Gg Gz dd' |
[V:2]G2 z2 A2 |
[V:3]B,2 z2 F2 |
[V:4]G,,2 G,2 z2 |
[V:1]ed' dd' fd' |
[V:2]B2 A2 c2 |
[V:3]G2 F2 A2 |
[V:4]z4 D,2 |
[V:1]bg dB Gg |
[V:2]B2 z2 D2 |
[V:3]G2 z2 B,2 |
[V:4]G,2 z4 |
[V:1]Ag Gg Bg |
[V:2]E2 D2 =F2 |
[V:3]C2 B,2 D2 |
[V:4]z4 G,2 |
[V:1]ec Gg ec |
[V:2]E2 z4 |
[V:3]C2 z4 |
[V:4]C2 z4 |
[V:1]dB Gg dB |
[V:2]G2 z4 |
[V:3]B,2 z4 |
[V:4]B,2 z4 |
[V:1]dc Ac BG |
[V:2]A2 z2 B2 |
[V:3]A2 z2 G2 |
[V:4]F,2 z2 G,2 |
[V:1]Dd fd af |
[V:2]A2 A2 A2 |
[V:3]F2 F2 F2 |
[V:4]D,2 D,2 D,2 |
[V:1]dd' dd' bg |
[V:2]A2 z4 |
[V:3]F2 z4 |
[V:4]D,2 z4 |
[V:1]dB GD BG |
[V:2][B2D2] z4 |
[V:3]G2 z4 |
[V:4]G,2 z4 |
[V:1]EG cE DB |
[V:2]E2 z2 D2 |
[V:3]C2 z2 B,2 |
[V:4]G,,2 z4 |
[V:1]CB Af gd |
[V:2]A,2 c2 B2 |
[V:3]F,2 z4 |
[V:4]D,2 z4 |
[V:1]cd cA BG |
[V:2]A2 c2 B2 |
[V:3]F2 A2 G2 |
[V:4]D,2 D,2 D,2 |
[V:1]Df Dd bg |
[V:2]A2 z4 |
[V:3]F2 z4 |
[V:4]D,2 z4 |
[V:1]dB GD BG |
[V:2]D2 z2 D2 |
[V:3]B,2 z2 B,2 |
[V:4]G,2 z4 |
[V:1]EG cE DB |
[V:2]E2 z2 D2 |
[V:3]C2 z2 B,2 |
[V:4]G,,2 z4 |
[V:1]CB Af gd |
[V:2]A,2 c2 B2 |
[V:3]F,2 z2 G,2 |
[V:4]D,2 z2 G,,2 |
[V:1]ce dB cA |
[V:2]e2 d2 F2 |
[V:3]C2 B,2 A,2 |
[V:4]C,2 D,2 D,2 |
[V:1]Gg Gz3 |]
[V:2]G2 z4 |]
[V:3]G,2 z4 |]
[V:4]G,,2 z4 |]

